X: 22646
T: Laird Of Foveran, The
R: three-two
M: 3/2
K: Adorian
L:1/4
|:eA A/B/d/B/ AG|eA A/B/d/e/ g2|eA A/B/d/B/ AG|c c/d/ e d/B/ A2:|
aa/g/ed/B/AG|aa/g/eg/a/b2|aa/g/ed/B/AG|c c/d/ e d/B/ A2|
aa/g/ed/B/AG|aa/g/eg/a/b2|a/b/a/g/ed/B/AG|c/B/c/d/ e/d/g/B/ A2|

